img/dao-sct2-5.svg

<svg width="440" height="280" viewBox="0 0 440 280" fill="none" xmlns="http://www.w3.org/2000/svg">
<line x1="204" y1="140.5" x2="100" y2="140.5" stroke="#E0E0E0"/>
<path d="M89.33 169.66C105.529 169.66 118.66 156.529 118.66 140.33C118.66 124.131 105.529 111 89.33 111C73.1315 111 60 124.131 60 140.33C60 156.529 73.1315 169.66 89.33 169.66Z" fill="#F55681"/>
<path d="M366.63 194.28V100.76L285.64 54L204.65 100.76V194.28L285.64 241.04L366.63 194.28Z" stroke="#E0E0E0" stroke-miterlimit="10" stroke-linecap="round" stroke-linejoin="round"/>
<path d="M285.64 54V241.04" stroke="#E0E0E0" stroke-miterlimit="10" stroke-linecap="round" stroke-linejoin="round"/>
<path d="M204.65 100.76H366.63" stroke="#E0E0E0" stroke-miterlimit="10" stroke-linecap="round" stroke-linejoin="round"/>
<path d="M204.65 194.28H366.63" stroke="#E0E0E0" stroke-miterlimit="10" stroke-linecap="round" stroke-linejoin="round"/>
<path d="M204.65 100.76L285.64 241.04" stroke="#E0E0E0" stroke-miterlimit="10" stroke-linecap="round" stroke-linejoin="round"/>
<path d="M285.64 54L366.63 194.28" stroke="#E0E0E0" stroke-miterlimit="10" stroke-linecap="round" stroke-linejoin="round"/>
<path d="M366.63 100.76L285.64 241.04" stroke="#E0E0E0" stroke-miterlimit="10" stroke-linecap="round" stroke-linejoin="round"/>
<path d="M285.64 54L204.65 194.28" stroke="#E0E0E0" stroke-miterlimit="10" stroke-linecap="round" stroke-linejoin="round"/>
<path d="M204.65 100.76L366.63 194.28" stroke="#E0E0E0" stroke-miterlimit="10" stroke-linecap="round" stroke-linejoin="round"/>
<path d="M204.65 194.28L366.63 100.76" stroke="#E0E0E0" stroke-miterlimit="10" stroke-linecap="round" stroke-linejoin="round"/>
<path d="M286.121 51.7799C289.473 51.7799 292.191 49.0623 292.191 45.7099C292.191 42.3575 289.473 39.6399 286.121 39.6399C282.768 39.6399 280.051 42.3575 280.051 45.7099C280.051 49.0623 282.768 51.7799 286.121 51.7799Z" fill="white" stroke="#2F2E41" stroke-width="2" stroke-miterlimit="10" stroke-linecap="round" stroke-linejoin="round"/>
<path d="M277.541 65.14C275.481 65.14 273.971 63.12 274.641 61.17C276.281 56.42 280.801 53 286.111 53C291.421 53 295.941 56.41 297.581 61.17C298.251 63.12 296.741 65.14 294.681 65.14H277.541Z" fill="white" stroke="#2F2E41" stroke-width="2" stroke-miterlimit="10" stroke-linecap="round" stroke-linejoin="round"/>
<path d="M287.851 47.1399C288.141 47.1399 288.361 47.4199 288.291 47.6999C288.041 48.6599 287.171 49.3799 286.121 49.3799C285.081 49.3799 284.201 48.6699 283.951 47.6999C283.881 47.4199 284.091 47.1399 284.391 47.1399H287.851Z" fill="#F55681"/>
<path d="M299.561 66.1399H291.761C291.151 66.1399 290.671 65.5999 290.701 64.9599L291.101 57.7099C291.131 57.1199 291.601 56.6599 292.161 56.6599H299.151C299.711 56.6599 300.171 57.1199 300.211 57.7099L300.611 64.9599C300.651 65.5999 300.171 66.1399 299.561 66.1399Z" fill="white" stroke="#F55681" stroke-width="2" stroke-miterlimit="10" stroke-linecap="round" stroke-linejoin="round"/>
<path d="M297.511 59.29V55.85C297.511 54.83 296.681 54 295.661 54C294.641 54 293.811 54.83 293.811 55.85V59.29" stroke="#F55681" stroke-width="2" stroke-miterlimit="10" stroke-linecap="round" stroke-linejoin="round"/>
<path d="M286.121 238.78C289.473 238.78 292.191 236.062 292.191 232.71C292.191 229.358 289.473 226.64 286.121 226.64C282.768 226.64 280.051 229.358 280.051 232.71C280.051 236.062 282.768 238.78 286.121 238.78Z" fill="white" stroke="#2F2E41" stroke-width="2" stroke-miterlimit="10" stroke-linecap="round" stroke-linejoin="round"/>
<path d="M277.541 252.14C275.481 252.14 273.971 250.12 274.641 248.17C276.281 243.42 280.801 240 286.111 240C291.421 240 295.941 243.41 297.581 248.17C298.251 250.12 296.741 252.14 294.681 252.14H277.541Z" fill="white" stroke="#2F2E41" stroke-width="2" stroke-miterlimit="10" stroke-linecap="round" stroke-linejoin="round"/>
<path d="M287.851 234.14C288.141 234.14 288.361 234.42 288.291 234.7C288.041 235.66 287.171 236.38 286.121 236.38C285.081 236.38 284.201 235.67 283.951 234.7C283.881 234.42 284.091 234.14 284.391 234.14H287.851Z" fill="#F55681"/>
<path d="M299.561 253.14H291.761C291.151 253.14 290.671 252.6 290.701 251.96L291.101 244.71C291.131 244.12 291.601 243.66 292.161 243.66H299.151C299.711 243.66 300.171 244.12 300.211 244.71L300.611 251.96C300.651 252.6 300.171 253.14 299.561 253.14Z" fill="white" stroke="#F55681" stroke-width="2" stroke-miterlimit="10" stroke-linecap="round" stroke-linejoin="round"/>
<path d="M297.511 246.29V242.85C297.511 241.83 296.681 241 295.661 241C294.641 241 293.811 241.83 293.811 242.85V246.29" stroke="#F55681" stroke-width="2" stroke-miterlimit="10" stroke-linecap="round" stroke-linejoin="round"/>
<path d="M205.131 98.5399C208.483 98.5399 211.201 95.8223 211.201 92.4699C211.201 89.1175 208.483 86.3999 205.131 86.3999C201.778 86.3999 199.061 89.1175 199.061 92.4699C199.061 95.8223 201.778 98.5399 205.131 98.5399Z" fill="white" stroke="#2F2E41" stroke-width="2" stroke-miterlimit="10" stroke-linecap="round" stroke-linejoin="round"/>
<path d="M196.55 111.9C194.49 111.9 192.98 109.88 193.65 107.93C195.29 103.18 199.81 99.76 205.12 99.76C210.43 99.76 214.95 103.17 216.59 107.93C217.26 109.88 215.75 111.9 213.69 111.9H196.55Z" fill="white" stroke="#2F2E41" stroke-width="2" stroke-miterlimit="10" stroke-linecap="round" stroke-linejoin="round"/>
<path d="M206.861 93.8999C207.151 93.8999 207.371 94.1799 207.301 94.4599C207.051 95.4199 206.181 96.1399 205.131 96.1399C204.091 96.1399 203.211 95.4299 202.961 94.4599C202.891 94.1799 203.101 93.8999 203.401 93.8999H206.861Z" fill="#F55681"/>
<path d="M218.571 112.9H210.771C210.161 112.9 209.681 112.36 209.711 111.72L210.111 104.47C210.141 103.88 210.611 103.42 211.171 103.42H218.161C218.721 103.42 219.181 103.88 219.221 104.47L219.621 111.72C219.661 112.36 219.181 112.9 218.571 112.9Z" fill="white" stroke="#F55681" stroke-width="2" stroke-miterlimit="10" stroke-linecap="round" stroke-linejoin="round"/>
<path d="M216.521 106.05V102.61C216.521 101.59 215.691 100.76 214.671 100.76C213.651 100.76 212.821 101.59 212.821 102.61V106.05" stroke="#F55681" stroke-width="2" stroke-miterlimit="10" stroke-linecap="round" stroke-linejoin="round"/>
<path d="M205.131 192.05C208.483 192.05 211.201 189.333 211.201 185.98C211.201 182.628 208.483 179.91 205.131 179.91C201.778 179.91 199.061 182.628 199.061 185.98C199.061 189.333 201.778 192.05 205.131 192.05Z" fill="white" stroke="#2F2E41" stroke-width="2" stroke-miterlimit="10" stroke-linecap="round" stroke-linejoin="round"/>
<path d="M196.55 205.42C194.49 205.42 192.98 203.4 193.65 201.45C195.29 196.7 199.81 193.28 205.12 193.28C210.43 193.28 214.95 196.69 216.59 201.45C217.26 203.4 215.75 205.42 213.69 205.42H196.55Z" fill="white" stroke="#2F2E41" stroke-width="2" stroke-miterlimit="10" stroke-linecap="round" stroke-linejoin="round"/>
<path d="M206.861 187.42C207.151 187.42 207.371 187.7 207.301 187.98C207.051 188.94 206.181 189.66 205.131 189.66C204.091 189.66 203.211 188.95 202.961 187.98C202.891 187.7 203.101 187.42 203.401 187.42H206.861Z" fill="#F55681"/>
<path d="M218.571 206.42H210.771C210.161 206.42 209.681 205.88 209.711 205.24L210.111 197.99C210.141 197.4 210.611 196.94 211.171 196.94H218.161C218.721 196.94 219.181 197.4 219.221 197.99L219.621 205.24C219.661 205.87 219.181 206.42 218.571 206.42Z" fill="white" stroke="#F55681" stroke-width="2" stroke-miterlimit="10" stroke-linecap="round" stroke-linejoin="round"/>
<path d="M216.521 199.57V196.13C216.521 195.11 215.691 194.28 214.671 194.28C213.651 194.28 212.821 195.11 212.821 196.13V199.57" stroke="#F55681" stroke-width="2" stroke-miterlimit="10" stroke-linecap="round" stroke-linejoin="round"/>
<path d="M367.111 192.05C370.463 192.05 373.181 189.333 373.181 185.98C373.181 182.628 370.463 179.91 367.111 179.91C363.758 179.91 361.041 182.628 361.041 185.98C361.041 189.333 363.758 192.05 367.111 192.05Z" fill="white" stroke="#2F2E41" stroke-width="2" stroke-miterlimit="10" stroke-linecap="round" stroke-linejoin="round"/>
<path d="M358.53 205.42C356.47 205.42 354.96 203.4 355.63 201.45C357.27 196.7 361.79 193.28 367.1 193.28C372.41 193.28 376.93 196.69 378.57 201.45C379.24 203.4 377.73 205.42 375.67 205.42H358.53Z" fill="white" stroke="#2F2E41" stroke-width="2" stroke-miterlimit="10" stroke-linecap="round" stroke-linejoin="round"/>
<path d="M368.84 187.42C369.13 187.42 369.35 187.7 369.28 187.98C369.03 188.94 368.16 189.66 367.11 189.66C366.07 189.66 365.19 188.95 364.94 187.98C364.87 187.7 365.08 187.42 365.38 187.42H368.84Z" fill="#F55681"/>
<path d="M380.55 206.42H372.75C372.14 206.42 371.66 205.88 371.69 205.24L372.09 197.99C372.12 197.4 372.59 196.94 373.15 196.94H380.14C380.7 196.94 381.16 197.4 381.2 197.99L381.6 205.24C381.64 205.87 381.15 206.42 380.55 206.42Z" fill="white" stroke="#F55681" stroke-width="2" stroke-miterlimit="10" stroke-linecap="round" stroke-linejoin="round"/>
<path d="M378.5 199.57V196.13C378.5 195.11 377.67 194.28 376.65 194.28C375.63 194.28 374.8 195.11 374.8 196.13V199.57" stroke="#F55681" stroke-width="2" stroke-miterlimit="10" stroke-linecap="round" stroke-linejoin="round"/>
<path d="M367.111 98.5399C370.463 98.5399 373.181 95.8223 373.181 92.4699C373.181 89.1175 370.463 86.3999 367.111 86.3999C363.758 86.3999 361.041 89.1175 361.041 92.4699C361.041 95.8223 363.758 98.5399 367.111 98.5399Z" fill="white" stroke="#2F2E41" stroke-width="2" stroke-miterlimit="10" stroke-linecap="round" stroke-linejoin="round"/>
<path d="M358.53 111.9C356.47 111.9 354.96 109.88 355.63 107.93C357.27 103.18 361.79 99.76 367.1 99.76C372.41 99.76 376.93 103.17 378.57 107.93C379.24 109.88 377.73 111.9 375.67 111.9H358.53Z" fill="white" stroke="#2F2E41" stroke-width="2" stroke-miterlimit="10" stroke-linecap="round" stroke-linejoin="round"/>
<path d="M368.84 93.8999C369.13 93.8999 369.35 94.1799 369.28 94.4599C369.03 95.4199 368.16 96.1399 367.11 96.1399C366.07 96.1399 365.19 95.4299 364.94 94.4599C364.87 94.1799 365.08 93.8999 365.38 93.8999H368.84Z" fill="#F55681"/>
<path d="M380.55 112.9H372.75C372.14 112.9 371.66 112.36 371.69 111.72L372.09 104.47C372.12 103.88 372.59 103.42 373.15 103.42H380.14C380.7 103.42 381.16 103.88 381.2 104.47L381.6 111.72C381.64 112.36 381.15 112.9 380.55 112.9Z" fill="white" stroke="#F55681" stroke-width="2" stroke-miterlimit="10" stroke-linecap="round" stroke-linejoin="round"/>
<path d="M378.5 106.05V102.61C378.5 101.59 377.67 100.76 376.65 100.76C375.63 100.76 374.8 101.59 374.8 102.61V106.05" stroke="#F55681" stroke-width="2" stroke-miterlimit="10" stroke-linecap="round" stroke-linejoin="round"/>
<path d="M277.841 166.49L293.451 162.39C292.931 159.25 295.411 156.91 295.411 156.91C300.321 153.39 303.571 147.4 303.571 141.11C303.571 131.24 295.571 123.23 285.691 123.23C275.821 123.23 267.811 131.23 267.811 141.11C267.811 147.6 271.271 153.77 276.441 157.24" fill="white"/>
<path d="M277.841 166.49L293.451 162.39C292.931 159.25 295.411 156.91 295.411 156.91C300.321 153.39 303.571 147.4 303.571 141.11C303.571 131.24 295.571 123.23 285.691 123.23C275.821 123.23 267.811 131.23 267.811 141.11C267.811 147.6 271.271 153.77 276.441 157.24" stroke="#2F2E41" stroke-width="2" stroke-miterlimit="10" stroke-linecap="round" stroke-linejoin="round"/>
<path d="M293.441 167.67L277.831 171.77" stroke="#2F2E41" stroke-width="2" stroke-miterlimit="10" stroke-linecap="round" stroke-linejoin="round"/>
<path d="M280.9 176.61C282.11 177.54 283.61 178.09 285.25 178.09C286.89 178.09 288.39 177.53 289.6 176.61" stroke="#2F2E41" stroke-width="2" stroke-miterlimit="10" stroke-linecap="round" stroke-linejoin="round"/>
<path d="M285.641 110.68V115.68" stroke="#F55681" stroke-width="2" stroke-miterlimit="10" stroke-linecap="round" stroke-linejoin="round"/>
<path d="M261.48 120.73L265.02 124.26" stroke="#F55681" stroke-width="2" stroke-miterlimit="10" stroke-linecap="round" stroke-linejoin="round"/>
<path d="M254.26 144.91H259.26" stroke="#F55681" stroke-width="2" stroke-miterlimit="10" stroke-linecap="round" stroke-linejoin="round"/>
<path d="M264.301 166.3L267.841 162.77" stroke="#F55681" stroke-width="2" stroke-miterlimit="10" stroke-linecap="round" stroke-linejoin="round"/>
<path d="M307.121 166.24L303.591 162.71" stroke="#F55681" stroke-width="2" stroke-miterlimit="10" stroke-linecap="round" stroke-linejoin="round"/>
<path d="M317.101 144.82H312.101" stroke="#F55681" stroke-width="2" stroke-miterlimit="10" stroke-linecap="round" stroke-linejoin="round"/>
<path d="M309.821 120.66L306.291 124.2" stroke="#F55681" stroke-width="2" stroke-miterlimit="10" stroke-linecap="round" stroke-linejoin="round"/>
<path d="M285.251 150.26C289.779 150.26 293.451 146.414 293.451 141.67C293.451 136.926 289.779 133.08 285.251 133.08C280.722 133.08 277.051 136.926 277.051 141.67C277.051 146.414 280.722 150.26 285.251 150.26Z" fill="#F55681"/>
<path d="M205 140.5L198.25 144.397L198.25 136.603L205 140.5Z" fill="#E0E0E0"/>
<path d="M93.6258 134.502L93.0322 136.279C92.9121 136.643 92.5724 136.887 92.1881 136.887H77.8247C77.2174 136.887 76.7884 137.48 76.9806 138.057C77.1007 138.42 77.4404 138.664 77.8247 138.664H91.0043C91.6117 138.664 92.0406 139.258 91.8484 139.834L89.4774 146.947C89.3573 147.311 89.0176 147.555 88.6333 147.555H77.0389C76.6546 147.555 76.3149 147.311 76.1948 146.947L75.6012 145.17C75.4091 144.593 75.838 144 76.4453 144H86.0701C86.451 144 86.7907 143.756 86.9142 143.392C87.1064 142.816 86.6775 142.222 86.0701 142.222H75.2615C74.8772 142.222 74.5375 141.979 74.4174 141.615L72.0464 134.502C71.8542 133.925 72.2831 133.332 72.8905 133.332H92.7817C93.3891 133.332 93.818 133.929 93.6258 134.502Z" fill="white"/>
<path d="M102.897 134.502L102.303 136.279C102.183 136.643 101.843 136.887 101.459 136.887H98.3535L99.5373 133.332H102.049C102.66 133.332 103.089 133.929 102.897 134.502Z" fill="white"/>
<path d="M106.539 129.17L105.945 130.947C105.825 131.311 105.485 131.555 105.101 131.555H100.136L100.915 129.215C101.155 128.491 101.834 128 102.6 128H105.695C106.302 128 106.731 128.594 106.539 129.17Z" fill="white"/>
<path d="M95.2479 136.89H98.3533L95.0009 146.95C94.8808 147.314 94.5411 147.558 94.1568 147.558H92.2833C91.676 147.558 91.247 146.964 91.4392 146.388L94.4038 137.497C94.5239 137.134 94.8636 136.89 95.2479 136.89Z" fill="white"/>
<path d="M100.131 131.554L99.537 133.332H97.0218C96.4145 133.332 95.9856 132.738 96.1777 132.162C96.2978 131.798 96.6375 131.554 97.0218 131.554H100.131Z" fill="white"/>
<path d="M92.2492 151.693C93.0356 151.693 93.6732 151.055 93.6732 150.269C93.6732 149.482 93.0356 148.845 92.2492 148.845C91.4627 148.845 90.8252 149.482 90.8252 150.269C90.8252 151.055 91.4627 151.693 92.2492 151.693Z" fill="white"/>
<path d="M82.8373 151.693C83.6238 151.693 84.2613 151.055 84.2613 150.269C84.2613 149.482 83.6238 148.845 82.8373 148.845C82.0509 148.845 81.4133 149.482 81.4133 150.269C81.4133 151.055 82.0509 151.693 82.8373 151.693Z" fill="white"/>
</svg>

<?xml version="1.0" encoding="utf-8"?>
<!-- Generator: Adobe Illustrator 24.1.3, SVG Export Plug-In . SVG Version: 6.00 Build 0)  -->
<svg version="1.1" id="图层_1" xmlns="http://www.w3.org/2000/svg" xmlns:xlink="http://www.w3.org/1999/xlink" x="0px" y="0px"
	 viewBox="0 0 440 280" style="enable-background:new 0 0 440 280;" xml:space="preserve">
<style type="text/css">
	.st0{fill:none;stroke:#E0E0E0;}
	.st1{fill:#FF4480;}
	.st2{fill:none;stroke:#E0E0E0;stroke-linecap:round;stroke-linejoin:round;stroke-miterlimit:10;}
	.st3{fill:#FFFFFF;stroke:#2F2E41;stroke-width:2;stroke-linecap:round;stroke-linejoin:round;stroke-miterlimit:10;}
	.st4{fill:#FFFFFF;stroke:#FF4480;stroke-width:2;stroke-linecap:round;stroke-linejoin:round;stroke-miterlimit:10;}
	.st5{fill:none;stroke:#FF4480;stroke-width:2;stroke-linecap:round;stroke-linejoin:round;stroke-miterlimit:10;}
	.st6{fill:#FFFFFF;}
	.st7{fill:none;stroke:#2F2E41;stroke-width:2;stroke-linecap:round;stroke-linejoin:round;stroke-miterlimit:10;}
	.st8{fill:#E0E0E0;}
</style>
<line class="st0" x1="204" y1="140.5" x2="100" y2="140.5"/>
<path class="st1" d="M89.3,169.7c16.2,0,29.3-13.1,29.3-29.3S105.5,111,89.3,111C73.1,111,60,124.1,60,140.3S73.1,169.7,89.3,169.7z
	"/>
<path class="st2" d="M366.6,194.3v-93.5l-81-46.8l-81,46.8v93.5l81,46.8L366.6,194.3z"/>
<path class="st2" d="M285.6,54v187"/>
<path class="st2" d="M204.6,100.8h162"/>
<path class="st2" d="M204.6,194.3h162"/>
<path class="st2" d="M204.6,100.8l81,140.3"/>
<path class="st2" d="M285.6,54l81,140.3"/>
<path class="st2" d="M366.6,100.8l-81,140.3"/>
<path class="st2" d="M285.6,54l-81,140.3"/>
<path class="st2" d="M204.6,100.8l162,93.5"/>
<path class="st2" d="M204.6,194.3l162-93.5"/>
<path class="st3" d="M286.1,51.8c3.4,0,6.1-2.7,6.1-6.1s-2.7-6.1-6.1-6.1c-3.4,0-6.1,2.7-6.1,6.1S282.8,51.8,286.1,51.8z"/>
<path class="st3" d="M277.5,65.1c-2.1,0-3.6-2-2.9-4c1.6-4.8,6.2-8.2,11.5-8.2s9.8,3.4,11.5,8.2c0.7,2-0.8,4-2.9,4H277.5z"/>
<path class="st1" d="M287.9,47.1c0.3,0,0.5,0.3,0.4,0.6c-0.2,1-1.1,1.7-2.2,1.7c-1,0-1.9-0.7-2.2-1.7c-0.1-0.3,0.1-0.6,0.4-0.6
	H287.9z"/>
<path class="st4" d="M299.6,66.1h-7.8c-0.6,0-1.1-0.5-1.1-1.2l0.4-7.2c0-0.6,0.5-1,1.1-1h7c0.6,0,1,0.5,1.1,1l0.4,7.2
	C300.7,65.6,300.2,66.1,299.6,66.1z"/>
<path class="st5" d="M297.5,59.3v-3.4c0-1-0.8-1.8-1.8-1.8c-1,0-1.9,0.8-1.9,1.8v3.4"/>
<path class="st3" d="M286.1,238.8c3.4,0,6.1-2.7,6.1-6.1c0-3.4-2.7-6.1-6.1-6.1c-3.4,0-6.1,2.7-6.1,6.1
	C280.1,236.1,282.8,238.8,286.1,238.8z"/>
<path class="st3" d="M277.5,252.1c-2.1,0-3.6-2-2.9-4c1.6-4.8,6.2-8.2,11.5-8.2s9.8,3.4,11.5,8.2c0.7,1.9-0.8,4-2.9,4H277.5z"/>
<path class="st1" d="M287.9,234.1c0.3,0,0.5,0.3,0.4,0.6c-0.2,1-1.1,1.7-2.2,1.7c-1,0-1.9-0.7-2.2-1.7c-0.1-0.3,0.1-0.6,0.4-0.6
	H287.9z"/>
<path class="st4" d="M299.6,253.1h-7.8c-0.6,0-1.1-0.5-1.1-1.2l0.4-7.2c0-0.6,0.5-1.1,1.1-1.1h7c0.6,0,1,0.5,1.1,1.1l0.4,7.2
	C300.7,252.6,300.2,253.1,299.6,253.1z"/>
<path class="st5" d="M297.5,246.3v-3.4c0-1-0.8-1.9-1.8-1.9c-1,0-1.9,0.8-1.9,1.9v3.4"/>
<path class="st3" d="M205.1,98.5c3.4,0,6.1-2.7,6.1-6.1s-2.7-6.1-6.1-6.1c-3.4,0-6.1,2.7-6.1,6.1S201.8,98.5,205.1,98.5z"/>
<path class="st3" d="M196.6,111.9c-2.1,0-3.6-2-2.9-4c1.6-4.8,6.2-8.2,11.5-8.2s9.8,3.4,11.5,8.2c0.7,1.9-0.8,4-2.9,4H196.6z"/>
<path class="st1" d="M206.9,93.9c0.3,0,0.5,0.3,0.4,0.6c-0.2,1-1.1,1.7-2.2,1.7c-1,0-1.9-0.7-2.2-1.7c-0.1-0.3,0.1-0.6,0.4-0.6
	H206.9z"/>
<path class="st4" d="M218.6,112.9h-7.8c-0.6,0-1.1-0.5-1.1-1.2l0.4-7.2c0-0.6,0.5-1.1,1.1-1.1h7c0.6,0,1,0.5,1.1,1.1l0.4,7.2
	C219.7,112.4,219.2,112.9,218.6,112.9z"/>
<path class="st5" d="M216.5,106v-3.4c0-1-0.8-1.8-1.8-1.8c-1,0-1.9,0.8-1.9,1.8v3.4"/>
<path class="st3" d="M205.1,192c3.4,0,6.1-2.7,6.1-6.1c0-3.4-2.7-6.1-6.1-6.1c-3.4,0-6.1,2.7-6.1,6.1
	C199.1,189.3,201.8,192,205.1,192z"/>
<path class="st3" d="M196.6,205.4c-2.1,0-3.6-2-2.9-4c1.6-4.8,6.2-8.2,11.5-8.2s9.8,3.4,11.5,8.2c0.7,1.9-0.8,4-2.9,4H196.6z"/>
<path class="st1" d="M206.9,187.4c0.3,0,0.5,0.3,0.4,0.6c-0.2,1-1.1,1.7-2.2,1.7c-1,0-1.9-0.7-2.2-1.7c-0.1-0.3,0.1-0.6,0.4-0.6
	H206.9z"/>
<path class="st4" d="M218.6,206.4h-7.8c-0.6,0-1.1-0.5-1.1-1.2l0.4-7.2c0-0.6,0.5-1.1,1.1-1.1h7c0.6,0,1,0.5,1.1,1.1l0.4,7.2
	C219.7,205.9,219.2,206.4,218.6,206.4z"/>
<path class="st5" d="M216.5,199.6v-3.4c0-1-0.8-1.9-1.8-1.9c-1,0-1.9,0.8-1.9,1.9v3.4"/>
<path class="st3" d="M367.1,192c3.4,0,6.1-2.7,6.1-6.1c0-3.4-2.7-6.1-6.1-6.1c-3.4,0-6.1,2.7-6.1,6.1C361,189.3,363.8,192,367.1,192
	z"/>
<path class="st3" d="M358.5,205.4c-2.1,0-3.6-2-2.9-4c1.6-4.8,6.2-8.2,11.5-8.2s9.8,3.4,11.5,8.2c0.7,1.9-0.8,4-2.9,4H358.5z"/>
<path class="st1" d="M368.8,187.4c0.3,0,0.5,0.3,0.4,0.6c-0.2,1-1.1,1.7-2.2,1.7c-1,0-1.9-0.7-2.2-1.7c-0.1-0.3,0.1-0.6,0.4-0.6
	H368.8z"/>
<path class="st4" d="M380.5,206.4h-7.8c-0.6,0-1.1-0.5-1.1-1.2l0.4-7.2c0-0.6,0.5-1.1,1.1-1.1h7c0.6,0,1,0.5,1.1,1.1l0.4,7.2
	C381.6,205.9,381.1,206.4,380.5,206.4z"/>
<path class="st5" d="M378.5,199.6v-3.4c0-1-0.8-1.9-1.9-1.9c-1,0-1.9,0.8-1.9,1.9v3.4"/>
<path class="st3" d="M367.1,98.5c3.4,0,6.1-2.7,6.1-6.1s-2.7-6.1-6.1-6.1c-3.4,0-6.1,2.7-6.1,6.1S363.8,98.5,367.1,98.5z"/>
<path class="st3" d="M358.5,111.9c-2.1,0-3.6-2-2.9-4c1.6-4.8,6.2-8.2,11.5-8.2s9.8,3.4,11.5,8.2c0.7,1.9-0.8,4-2.9,4H358.5z"/>
<path class="st1" d="M368.8,93.9c0.3,0,0.5,0.3,0.4,0.6c-0.2,1-1.1,1.7-2.2,1.7c-1,0-1.9-0.7-2.2-1.7c-0.1-0.3,0.1-0.6,0.4-0.6
	H368.8z"/>
<path class="st4" d="M380.5,112.9h-7.8c-0.6,0-1.1-0.5-1.1-1.2l0.4-7.2c0-0.6,0.5-1.1,1.1-1.1h7c0.6,0,1,0.5,1.1,1.1l0.4,7.2
	C381.6,112.4,381.1,112.9,380.5,112.9z"/>
<path class="st5" d="M378.5,106v-3.4c0-1-0.8-1.8-1.9-1.8c-1,0-1.9,0.8-1.9,1.8v3.4"/>
<path class="st6" d="M277.8,166.5l15.6-4.1c-0.5-3.1,2-5.5,2-5.5c4.9-3.5,8.2-9.5,8.2-15.8c0-9.9-8-17.9-17.9-17.9
	c-9.9,0-17.9,8-17.9,17.9c0,6.5,3.5,12.7,8.6,16.1"/>
<path class="st7" d="M277.8,166.5l15.6-4.1c-0.5-3.1,2-5.5,2-5.5c4.9-3.5,8.2-9.5,8.2-15.8c0-9.9-8-17.9-17.9-17.9
	c-9.9,0-17.9,8-17.9,17.9c0,6.5,3.5,12.7,8.6,16.1"/>
<path class="st7" d="M293.4,167.7l-15.6,4.1"/>
<path class="st7" d="M280.9,176.6c1.2,0.9,2.7,1.5,4.4,1.5s3.1-0.6,4.4-1.5"/>
<path class="st5" d="M285.6,110.7v5"/>
<path class="st5" d="M261.5,120.7l3.5,3.5"/>
<path class="st5" d="M254.3,144.9h5"/>
<path class="st5" d="M264.3,166.3l3.5-3.5"/>
<path class="st5" d="M307.1,166.2l-3.5-3.5"/>
<path class="st5" d="M317.1,144.8h-5"/>
<path class="st5" d="M309.8,120.7l-3.5,3.5"/>
<path class="st1" d="M285.3,150.3c4.5,0,8.2-3.8,8.2-8.6s-3.7-8.6-8.2-8.6c-4.5,0-8.2,3.8-8.2,8.6S280.7,150.3,285.3,150.3z"/>
<path class="st8" d="M205,140.5l-6.8,3.9v-7.8L205,140.5z"/>
<g>
	<g>
		<g>
			<g>
				<path class="st6" d="M89.2,152.7c-2.8,0-5.1-2.2-5.1-5.1v-10.4c0-1.2,1-2.2,2.2-2.2s2.2,1,2.2,2.2v10.4c0,0.4,0.4,0.8,0.8,0.8
					s0.8-0.4,0.8-0.8v-10.4c0-2.6-2.2-4.9-4.9-4.9c-2.6,0-4.9,2.2-4.9,4.9v13.4c0,1.2-1,2.2-2.2,2.2c-1.2,0-2.2-1-2.2-2.2v-13.4
					c0-5.1,4.1-9.1,9.1-9.1s9.1,4.1,9.1,9.1v10.4C94.3,150.5,92.1,152.7,89.2,152.7z"/>
			</g>
		</g>
		<g>
			<g>
				<path class="st6" d="M100.6,152.7c-1.2,0-2.2-1-2.2-2.2v-16c0-1.2-1-2.2-2.2-2.2c-1.2,0-2.2-1-2.2-2.2c0-1.2,1-2.2,2.2-2.2
					c3.7,0,6.5,2.8,6.5,6.5v16C102.8,151.9,101.8,152.7,100.6,152.7z"/>
			</g>
		</g>
	</g>
</g>
</svg>
